X: 2071
T: Âşık-ı Dilhasteye Rahmeyle
C: Ahmet Avni Konuk
O: Turkey
F: http://compmusic.upf.edu/node/140
N: kurdi--kupe--musemmen--asik-i--ahmet_avni_konuk
N: makam= kurdi
N: form= kupe
N: usul= musemmen = 8/8
M: 8/8
L: 1/16
K: C _B   
Q: 1/4=96
%%MIDI tuningsystem comma53
g4 a2a4a2 g2f2  | b2a2 g2gf fed4z2  | \
w:  Â şık_ ı  dil  |  has *  te ye  *  *  *  rah  | 
d4 e2f2 {g}fed4z2  | 
w:  mey le  sen  *  *  *  ey   | 
^3/4c2d2 edd8z2  | c4 c2c2 _e2d2 c2B2  | \
w:  gül *  be *  den    |  Bâ ri  ol  *  çeh  | 
c_ed2 c2cB BAG4z2  | 
w:  re  *  *  zü  Kür *  *  *  dî   | 
G4 A2B2 d2c2 B4  | B2A2 G2AB {c}BAA4z2  | |


